X: 206
T: Song of the Shuffling-feet Dance
C: Teton Sioux band 1911-1914
N: Derived from sioux201.krn
O: South Dakota, U.S.A.
N: Teton Sioux Music by Frances Densmore, 1918
Z: transcribed to **kern format by Craig Sapp
L: 1/8
M: 2/4
Q: 1/4=58
K: B clef=bass
%%linebreak <none>
{/F,}F2F G | 
F F F/ C3/ ||  
[M:3/4]C< F D F/ D/ C B, ||  
[M:2/4]C2C F/ C/ | 
B, G, F,/ F,3/ ||  
[M:3/4]D,< F, G,> F,F,2 ||  
[M:2/4]G,< F,F,2 | 
G,< F,F,2- | 
F,4 | 
F< D D/ C3/ | 
(F C) B,/ B,3/ ||  
[M:3/4]B,< C C C/ C/ D/ C3/ ||  
[M:2/4](3B, B, G, F,/ F,3/ ||  
[M:3/4]D,< F, G,> F,F,2 ||  
[M:2/4]G,< F,F,2 | 
G,< F,F,2- | 
F,4 |]  



